X:13
T:Capt' Jolly. JJo.013
B:J.Johnson Choice Collection Vol 8 1758
Z:vmp.Simon Wilson 2013 www.village-music-project.org.uk
Z:Dance added by John Chambers 2017
M:6/8
L:1/8
%Q:3/8=120
K:Bb
|: f3B2A | Bcde2g | fedc2B | ABcF3 | f3B2A | Bcde2g | fed cBA | B3B,3 :|
|: b3ag^f | gabc3 | BAg =fdB | ecA Bdf | gab fdB | e3g3 | fed cBA | B3B,3 :|
%%begintext align
%% Cast off and hands 4 round at Bottom
%% .| Cast up and hands 4 round at
%% top :|. Cross over and half figure :||.
%% Right hands and Left :||:
%%endtext
